icons/undo.svg

<svg width="24" height="24" viewBox="0 0 24 24" fill="none" xmlns="http://www.w3.org/2000/svg">
<path fill-rule="evenodd" clip-rule="evenodd" d="M7.53547 8.07107C8.33898 7.16464 9.84282 5.9984 12.073 5.99603C15.2037 5.9927 18.0666 8.48034 18.073 12C18.0793 15.5197 15.1543 18.0002 12.073 18.0002C12.073 18.0002 11.073 18.0002 11.073 19C11.073 19.9998 12.073 20 12.073 20C16.4913 20 20.073 16.4183 20.073 12C20.073 7.58172 16.4913 4 12.073 4C9.64363 4 7.46717 5.08286 5.99998 6.79224V5C5.99998 4.44772 5.55226 4 4.99998 4C4.44769 4 3.99998 4.44772 3.99998 5V9.07107C3.99998 9.62335 4.44769 10.0711 4.99998 10.0711H9.073C9.62528 10.0711 10.073 9.62335 10.073 9.07107C10.073 8.51878 9.62528 8.07107 9.073 8.07107H7.53547Z" fill="#3A3A47"/>
</svg>

<svg xmlns="http://www.w3.org/2000/svg" width="24" height="24" viewBox="0 0 24 24">
    <path fill="#3A3A47" fill-rule="evenodd" d="M5 4a1 1 0 0 0-1 1v4.071a1 1 0 0 0 1 1h4.073a1 1 0 0 0 0-2H7.535c.803-.906 2.307-2.073 4.538-2.075 3.13-.003 5.994 2.484 6 6.004.006 3.52-2.919 6-6 6 0 0-1 0-1 1s1 1 1 1A8 8 0 1 0 5.999 6.793L6 5a1 1 0 0 0-1-1z"/>
</svg>
